X: 95
T: JOHN MITCHEL
B: O'Neill's 95
M:  C
L: 1/8
Z: Transcribed by John Chambers <jc@trillian.mit.edu>
N: "Moderate"
N: "Collected by Ennis"
K:G
((3EFG) | A2A>B d2e2 | G3B A2GE | D2D>E G2G2 | G6 Hx[|
Bd | e2e>e d2g2 | B3A G2AB | c3d cBAG | E6 "D.C."|]


